!!!COM: Haydn, Johann Michael
!!!OTL: Menuet 1
!!!OPR: Six Menuets for orchestra
**kern	**dynam	**kern	**dynam	**kern	**dynam	**kern	**dynam	**kern	**dynam
!Basso	!Basso	!Violino II	!Violino II	!Violino I	!Violino I	!corni in A	!corni in A	!oboi	!oboi
*cbass	*cbass	*violn	*violn	*violn	*violn	*tromp	*tromp	*Ioboe	*Ioboe
*	*	*	*	*	*	*ITrd2c3	*ITrd2c3	*	*
*staff5	*staff5	*staff4	*staff4	*staff3	*staff3	*staff2	*staff2	*staff1	*staff1
*clefF4	*clefF4	*clefG2	*clefG2	*clefG2	*clefG2	*clefG2	*clefG2	*clefG2	*clefG2
*>[A,A,B,B,C,C,D,D,A,B]	*>[A,A,B,B,C,C,D,D,A,B]	*>[A,A,B,B,C,C,D,D,A,B]	*>[A,A,B,B,C,C,D,D,A,B]	*>[A,A,B,B,C,C,D,D,A,B]	*>[A,A,B,B,C,C,D,D,A,B]	*>[A,A,B,B,C,C,D,D,A,B]	*>[A,A,B,B,C,C,D,D,A,B]	*>[A,A,B,B,C,C,D,D,A,B]	*>[A,A,B,B,C,C,D,D,A,B]
*>norep[A,B,C,D,A,B]	*>norep[A,B,C,D,A,B]	*>norep[A,B,C,D,A,B]	*>norep[A,B,C,D,A,B]	*>norep[A,B,C,D,A,B]	*>norep[A,B,C,D,A,B]	*>norep[A,B,C,D,A,B]	*>norep[A,B,C,D,A,B]	*>norep[A,B,C,D,A,B]	*>norep[A,B,C,D,A,B]
*k[f#c#g#]	*k[f#c#g#]	*k[f#c#g#]	*k[f#c#g#]	*k[f#c#g#]	*k[f#c#g#]	*k[f#c#g#]	*k[f#c#g#]	*k[f#c#g#]	*k[f#c#g#]
*A:	*A:	*A:	*A:	*A:	*A:	*A:	*A:	*A:	*A:
*M3/4	*M3/4	*M3/4	*M3/4	*M3/4	*M3/4	*M3/4	*M3/4	*M3/4	*M3/4
*MM110	*MM110	*MM110	*MM110	*MM110	*MM110	*MM110	*MM110	*MM110	*MM110
*	*	*	*	*	*	*^	*	*^	*
*>A	*>A	*>A	*>A	*>A	*>A	*>A	*>A	*>A	*>A	*>A	*>A
4r	.	8.ee\L	.	8.ee\L	.	4r	4r	.	4r	4r	.
.	.	16cc#\Jk	.	16cc#\Jk	.	.	.	.	.	.	.
=1	=1	=1	=1	=1	=1	=1	=1	=1	=1	=1	=1
4AA/	.	4a/	.	4a/	.	4a\	4a/	.	4ee/	4cc#\	.
4C#/	.	4aa\	.	4aa\	.	4e\	4e/	.	4cc#/	4a\	.
4E\	.	4aa\	.	4aa\	.	4c#\	4c#/	.	4r	4r	.
=2	=2	=2	=2	=2	=2	=2	=2	=2	=2	=2	=2
4C#/	.	(4aa\	.	(4aa\	.	2.A\	2.A/	.	4aa/	4ee\	.
4AA/	.	4cc#\)	.	4cc#\)	.	.	.	.	4ee/	4cc#\	.
4F#\	.	4a/	.	4cc#\	.	.	.	.	4cc#/	4a\	.
=3	=3	=3	=3	=3	=3	=3	=3	=3	=3	=3	=3
4D\	.	(8f#/L	.	2ff#\	.	4r	4r	.	(4dd/	(4b\	.
.	.	8d/)	.	.	.	.	.	.	.	.	.
4BB/	.	(8c#/	.	.	.	4r	4r	.	4ff#/)	4dd\)	.
.	.	8d/)	.	.	.	.	.	.	.	.	.
4D\	.	8f#/	.	8dd\L	.	4dd/	4b\	.	4dd/	4b\	.
.	.	8d/J	.	8b\J	.	.	.	.	.	.	.
=4	=4	=4	=4	=4	=4	=4	=4	=4	=4	=4	=4
.	.	(4c#Q/	.	4aQ/	.	.	.	.	.	.	.
4E\	.	2B/)	.	2g#/	.	(4cc#/	(4a\	.	(4cc#/	(4a\	.
4e\	.	.	.	.	.	4b/)	4e\)	.	4b/)	4g#\)	.
.	.	16aQ/	.	16aQ/	.	.	.	.	.	.	.
4d\	.	8g#/L	.	8g#/L	.	4r	4r	.	4gg#/	4b\	.
.	.	16f#/L	.	16f#/L	.	.	.	.	.	.	.
.	.	16e/JJ	.	16e/JJ	.	.	.	.	.	.	.
=5	=5	=5	=5	=5	=5	=5	=5	=5	=5	=5	=5
4c#\	.	4a/	.	4a/	.	4a/	4A\	.	4aa/	4ee\	.
4B\	.	4g#/	.	4b\	.	4b/	4e\	.	4bb/	4dd\	.
4A\	.	4a/	.	4cc#\	.	4cc#/	4a\	.	4ccc#/	4cc#\	.
=6	=6	=6	=6	=6	=6	=6	=6	=6	=6	=6	=6
4G#\	.	4b\	.	4dd\	.	4b/	4e\	.	4ddd/	4b\	.
4r	.	4r	.	4r	.	4r	4r	.	4r	4r	.
4A\	p	4e/	p	4cc#\	p	4r	4r	.	4ccc#/	4ee\	p
=7	=7	=7	=7	=7	=7	=7	=7	=7	=7	=7	=7
4D\	.	8.f#/L	.	4.b\	.	4r	4r	.	4.bb/	2ff#\	.
.	.	16e/Jk	.	.	.	.	.	.	.	.	.
4BB/	.	4f#/	.	.	.	4r	4r	.	.	.	.
.	.	.	.	8dd\	.	.	.	.	8ddd/	.	.
4E\	.	4g#/	.	4b\	.	4b/	4e\	p	4bb/	4dd\	.
=8	=8	=8	=8	=8	=8	=8	=8	=8	=8	=8	=8
4A\	.	4a/	.	4a/	.	4a/	4A\	.	4aa/	4cc#\	.
4AA/	.	4r	.	4r	.	4r	4r	.	4r	4r	.
=:|!|:	=:|!|:	=:|!|:	=:|!|:	=:|!|:	=:|!|:	=:|!|:	=:|!|:	=:|!|:	=:|!|:	=:|!|:	=:|!|:
*>B	*>B	*>B	*>B	*>B	*>B	*>B	*>B	*>B	*>B	*>B	*>B
4r	.	(8cc#/L	f	4ee\	f	4r	4r	.	4r	4r	.
.	.	8a/J)	.	.	.	.	.	.	.	.	.
=9	=9	=9	=9	=9	=9	=9	=9	=9	=9	=9	=9
4E\	f	(8g#/L	.	4.ee\	.	4b/	4e\	f	2ee/	2g#\	.
.	.	8e/)	.	.	.	.	.	.	.	.	.
4e\	.	8g#'/	.	.	.	4b/	4e\	.	.	.	.
.	.	8b'/	.	8gg#\	.	.	.	.	.	.	.
4d\	.	(8g#/	.	4ee\	.	4b/	4e\	.	4gg#/	4b\	.
.	.	8e/J)	.	.	.	.	.	.	.	.	.
=10	=10	=10	=10	=10	=10	=10	=10	=10	=10	=10	=10
4c#\	.	(8A/L	.	4aa\	.	4a/	4A\	.	4aa/	4a\	.
.	.	8e/)	.	.	.	.	.	.	.	.	.
4r	.	8a'/	.	4ee\	.	4r	4r	.	4r	4r	.
.	.	8cc#'/	.	.	.	.	.	.	.	.	.
4c#\	.	(8a/	.	4ee\	.	4a/	4A\	.	4cc#/	4a\	.
.	.	8e/J)	.	.	.	.	.	.	.	.	.
=11	=11	=11	=11	=11	=11	=11	=11	=11	=11	=11	=11
4G#\	.	(8d/L	.	4bb\	.	4b/	4e\	.	4dd/	4b\	.
.	.	8e/)	.	.	.	.	.	.	.	.	.
4r	.	8b'/	.	4ee\	.	4r	4r	.	4r	4r	.
.	.	8dd'/	.	.	.	.	.	.	.	.	.
4G#\	.	(8b/	.	4ee\	.	4b/	4e\	.	4ddd/	4bb\	.
.	.	8e/J)	.	.	.	.	.	.	.	.	.
=12	=12	=12	=12	=12	=12	=12	=12	=12	=12	=12	=12
4A\	.	(8e/L	.	4ccc#\	.	4cc#/	4a\	.	4ccc#/	4aa\	.
.	.	8a/)	.	.	.	.	.	.	.	.	.
4AA/	.	8cc#'/	.	4r	.	4a/	4A\	.	4r	4r	.
.	.	8ee'/	.	.	.	.	.	.	.	.	.
4C#/	.	(8a/	.	4ee\	.	4a/	4A\	.	4ee/	4a\	.
.	.	8e/J)	.	.	.	.	.	.	.	.	.
=13	=13	=13	=13	=13	=13	=13	=13	=13	=13	=13	=13
4D\	.	(8f#/L	.	(8ff#\L	.	4a/	4A\	.	4ff#/	2a\	.
.	.	8g#/)	.	8gg#\)	.	.	.	.	.	.	.
4C#/	.	8a'/	.	8aa'\	.	4r	4r	.	4ee/	.	.
.	.	8b'/	.	8bb'\	.	.	.	.	.	.	.
4AA/	.	8cc#'/	.	8ccc#'\	.	4r	4r	.	4aa/	4ee\	.
.	.	8e'/J	.	8ee'\J	.	.	.	.	.	.	.
=14	=14	=14	=14	=14	=14	=14	=14	=14	=14	=14	=14
4D\	.	(8f#/L	.	(8ff#\L	.	4a/	4A\	.	4ff#/	2a\	.
.	.	8g#/)	.	8gg#\)	.	.	.	.	.	.	.
4C#/	.	8a'/	.	8aa'\	.	4r	4r	.	4ee/	.	.
.	.	8b'/	.	8bb'\	.	.	.	.	.	.	.
4AA/	.	8cc#'/	p	8ccc#'\	.	4r	4r	.	4r	4r	.
.	.	8cc#'/J	.	8ee'\J	.	.	.	.	.	.	.
=15	=15	=15	=15	=15	=15	=15	=15	=15	=15	=15	=15
4E\	p	(8cc#/L	.	(8ee\L	.	4e/	4e\	p	4e/	4e\	p
.	.	8b/)	.	8dd\)	.	.	.	.	.	.	.
4e\	.	(8b/	.	8dd\	.	4e/	4e\	.	(8dd/L	(8b\L	.
.	.	8a/)	.	8cc#\	.	.	.	.	8cc#/	(8a\)	.
4e\	.	8a/	.	(8cc#\	.	4e/	4e\	.	(8cc#/)	8a\	.
.	.	8g#/J	.	8b\J)	.	.	.	.	8b/J)	8g#\J)	.
=16	=16	=16	=16	=16	=16	=16	=16	=16	=16	=16	=16
4e\	.	2g#/	.	2b\	.	2e/	2e\	.	2b/	2g#\	.
4E\	.	.	.	.	.	.	.	.	.	.	.
.	.	(16aQ/	.	(16aQ/	.	.	.	.	.	.	.
4D\	f	8g#/L)	f	8g#/L)	f	4b/	4e\	f	4g#/	4e\	f
.	.	16f#/L	.	16f#/L	.	.	.	.	.	.	.
.	.	16e/JJ	.	16e/JJ	.	.	.	.	.	.	.
=17	=17	=17	=17	=17	=17	=17	=17	=17	=17	=17	=17
4C#/	.	4a/	.	4a/	.	4a/	4A\	.	4ee/	4e\	.
4BB/	.	4g#/	.	4b\	.	4r	4r	.	4dd/	4g#\	.
4AA/	.	4a/	.	4cc#\	.	4a/	4A\	.	4cc#/	4a\	.
=18	=18	=18	=18	=18	=18	=18	=18	=18	=18	=18	=18
4F#\	.	4.dd\	.	4.dd\	.	4a/	4A\	.	2dd/	2a\	.
4E\	.	.	.	.	.	4r	4r	.	.	.	.
.	.	8cc#\	.	8ee\	.	.	.	.	.	.	.
4D\	.	4dd\	.	4ff#\	.	4a/	4A\	.	4aa/	4ff#\	.
=19	=19	=19	=19	=19	=19	=19	=19	=19	=19	=19	=19
4C#/	.	(8ee\L	.	(8ee\L	.	4a/	4A\	.	4aa/	4ee\	.
.	.	8aa\)	.	8aa\)	.	.	.	.	.	.	.
4E\	.	(8a\	.	(8cc#\	.	4cc#/	4a\	.	4cc#/	4a\	.
.	.	8cc#\)	.	8ee\)	.	.	.	.	.	.	.
4E\	.	8b'\	.	8dd'\	.	4b/	4e\	.	8dd/L	8b\L	.
.	.	8g#'\J	.	8b'\J	.	.	.	.	8b/J	8g#\J	.
=20	=20	=20	=20	=20	=20	=20	=20	=20	=20	=20	=20
4A\	.	4a/	.	4a/	.	4a/	4c#\	.	4a/	4a\	.
4AA/	.	4r	.	4r	.	4r	4r	.	4r	4r	.
*	*	*	*	*	*	*v	*v	*	*	*	*
*	*	*	*	*	*	*	*	*v	*v	*
=:|!	=:|!	=:|!	=:|!	=:|!	=:|!	=:|!	=:|!	=:|!	=:|!
!! Trio
*>C	*>C	*>C	*>C	*>C	*>C	*>C	*>C	*>C	*>C
*M3/4	*M3/4	*M3/4	*M3/4	*M3/4	*M3/4	*M3/4	*M3/4	*clefF4	*clefF4
*	*	*	*	*	*	*	*	*M3/4	*M3/4
4A\	p	(8e/L	p	(8cc#\L	p	4r	.	(8c#\L	.
.	.	8c#/J)	.	8a\J)	.	.	.	8A\J)	.
=21	=21	=21	=21	=21	=21	=21	=21	=21	=21
.	.	.	.	(16g#Q/	.	.	.	16G#Q/	.
4A\	.	4d/	.	(8f#/L)	.	2.r	.	(8F#\L	.
.	.	.	.	8e/)	.	.	.	8E\)	.
4A\	.	4d/	.	(8f#/	.	.	.	(8F#\	.
.	.	.	.	8a/)	.	.	.	8A\)	.
4A\	.	4d/	.	8g#/	.	.	.	(8G#\	.
.	.	.	.	8b/J	.	.	.	8B\J)	.
=22	=22	=22	=22	=22	=22	=22	=22	=22	=22
.	.	.	.	(bQ/	.	.	.	(BQ/	.
4A\	.	4c#/	.	4a/)	.	2.r	.	4A\)	.
4A\	.	4c#/	.	8e'/L	.	.	.	8E'\L	.
.	.	.	.	8a'/	.	.	.	8A'\	.
4A\	.	(8e/L	.	(8cc#/	.	.	.	(8c#\	.
.	.	8c#/J)	.	8a/J)	.	.	.	8A\J)	.
=23	=23	=23	=23	=23	=23	=23	=23	=23	=23
.	.	.	.	(16g#Q/	.	.	.	16G#Q/	.
4A\	.	4d/	.	(8f#/L)	.	2.r	.	(8F#\L	.
.	.	.	.	8e/)	.	.	.	8E\)	.
4A\	.	4d/	.	(8f#/	.	.	.	(8F#\	.
.	.	.	.	8a/)	.	.	.	8A\)	.
4A\	.	4d/	.	(8g#/	.	.	.	(8G#\	.
.	.	.	.	8b/J)	.	.	.	8B\J)	.
=24	=24	=24	=24	=24	=24	=24	=24	=24	=24
4A\	.	(4d/	.	(4b/	.	2.r	.	(4B\	.
4r	.	8c#/L)	.	8a/L)	.	.	.	8A\L)	.
.	.	8c#'/	.	8a'/	.	.	.	8A'\	.
4AA/	.	8e'/	.	8e'/	.	.	.	8E'\	.
.	.	8a'/J	.	8cc#'/J	.	.	.	8c#'\J	.
=25	=25	=25	=25	=25	=25	=25	=25	=25	=25
4E\	.	(4a/	.	(4cc#\	.	2.r	.	(4c#\	.
4r	.	8g#/L)	.	8b/L)	.	.	.	8B\L)	.
.	.	8g#'/	.	8b'/	.	.	.	8B'\	.
4G#\	.	8e'/	.	8e'/	.	.	.	8E'\	.
.	.	8b'/J	.	8dd'/J	.	.	.	8d'\J	.
=26	=26	=26	=26	=26	=26	=26	=26	=26	=26
4A\	.	(4b\	.	(4dd\	.	2.r	.	(4d\	.
4r	.	8a\L)	.	8cc#\L)	.	.	.	8c#\L)	.
.	.	8cc#\	.	8ee\	.	.	.	8e\	.
4A\	.	8b\	.	8dd#\	.	.	.	8d#\	.
.	.	8dd#\J	.	8ff#\J	.	.	.	8f#\J	.
=27	=27	=27	=27	=27	=27	=27	=27	=27	=27
4G#\	.	(dd#Q/	.	ff#Q/	.	.	.	f#Q/	.
.	.	4ee\)	.	4ee\	.	2.r	.	4e\	.
4B\	.	(8g#/L	.	(8b/L	.	.	.	(8B\L	.
.	.	(8e/)	.	8g#/)	.	.	.	8G#\)	.
4BB/	.	8f#/	.	(8a/	.	.	.	(8A\	.
.	.	8d#/J)	.	8f#/J)	.	.	.	8F#\J)	.
=28	=28	=28	=28	=28	=28	=28	=28	=28	=28
4E\	.	4e/	.	4e/	.	2r	.	4E\	.
4r	.	4r	.	4r	.	.	.	4r	.
=:|!|:	=:|!|:	=:|!|:	=:|!|:	=:|!|:	=:|!|:	=:|!|:	=:|!|:	=:|!|:	=:|!|:
*>D	*>D	*>D	*>D	*>D	*>D	*>D	*>D	*>D	*>D
4c#\	f	4e/	f	(8ee\L	f	4r	.	4r	.
.	.	.	.	8aa\J)	.	.	.	.	.
=29	=29	=29	=29	=29	=29	=29	=29	=29	=29
.	.	.	.	aaQ/	.	.	.	.	.
4B\	.	4d/	.	4gg#\	.	2.r	.	2.r	.
4r	.	4r	.	8ff#'\L	.	.	.	.	.
.	.	.	.	8ee'\	.	.	.	.	.
4G#\	.	(8b\L	.	(8dd\	.	.	.	.	.
.	.	8dd\J)	.	8ff#\J)	.	.	.	.	.
=30	=30	=30	=30	=30	=30	=30	=30	=30	=30
.	.	(ddQ/	.	(ff#Q/	.	.	.	.	.
4A\	.	4cc#\)	.	4ee\)	.	2.r	.	2.r	.
4r	.	8b'/L	.	8dd'\L	.	.	.	.	.
.	.	8a'/	.	8cc#'\	.	.	.	.	.
4E\	.	(8g#/	.	(8b\	.	.	.	.	.
.	.	8b/J)	.	8dd\J)	.	.	.	.	.
=31	=31	=31	=31	=31	=31	=31	=31	=31	=31
4A\	.	(8b\L	.	(8dd\L	.	2.r	.	2.r	.
.	.	8a\)	.	8cc#\)	.	.	.	.	.
4D\	.	(8cc#\	.	(8ee\	.	.	.	.	.
.	.	8b\)	.	8dd\)	.	.	.	.	.
4BB/	.	(8dd\	.	(8ff#\	.	.	.	.	.
.	.	8b\J)	.	8dd\J)	.	.	.	.	.
=32	=32	=32	=32	=32	=32	=32	=32	=32	=32
.	.	(4aQ/	.	4cc#Q/	.	.	.	.	.
4E\	.	2g#/)	.	2b\	.	2.r	.	4r	.
4r	.	.	.	.	.	.	.	4r	.
4AA/	p	(8e/L	p	(8cc#\L	p	.	.	(8c#\L	.
.	.	8c#/J)	.	8a\J)	.	.	.	8A\J)	.
=33	=33	=33	=33	=33	=33	=33	=33	=33	=33
.	.	.	.	(16g#Q/	.	.	.	16G#Q/	.
4AA/	.	4d/	.	(8f#/L)	.	2.r	.	(8F#\L	.
.	.	.	.	8e/)	.	.	.	8E\)	.
4AA/	.	4d/	.	(8f#/	.	.	.	(8F#\	.
.	.	.	.	8a/)	.	.	.	8A\)	.
4AA/	.	4d/	.	8g#/	.	.	.	(8G#\	.
.	.	.	.	8b/J	.	.	.	8B\J)	.
=34	=34	=34	=34	=34	=34	=34	=34	=34	=34
.	.	(dQ/	.	(bQ/	.	.	.	BQ/	.
4AA/	.	4c#/)	.	4a/)	.	2.r	.	4A\	.
4AA/	.	4c#/	.	8e'/L	.	.	.	8E'\L	.
.	.	.	.	8a'/	.	.	.	8A'\	.
4AA/	.	(8e/L	.	(8cc#/	.	.	.	(8c#\	.
.	.	8c#/J)	.	8a/J)	.	.	.	8A\J)	.
=35	=35	=35	=35	=35	=35	=35	=35	=35	=35
.	.	.	.	(16g#Q/	.	.	.	16G#Q/	.
4AA/	.	(8d/L	.	(8f#/L)	.	2.r	.	(8F#\L	.
.	.	8c#/)	.	8e/)	.	.	.	8E'\)	.
4AA/	.	(8d/	.	(8f#/	.	.	.	(8F#\	.
.	.	8f#/)	.	8a/)	.	.	.	8A\)	.
4AA/	.	(8e/	.	8g#/	.	.	.	(8G#\	.
.	.	8d/J)	.	8b/J	.	.	.	8B\J)	.
=36	=36	=36	=36	=36	=36	=36	=36	=36	=36
4AA/	.	(4d/	.	(4b/	.	2r	.	(4B\	.
4r	.	4c#/)	.	4a/)	.	.	.	4A\)	.
==:|!	==:|!	==:|!	==:|!	==:|!	==:|!	==:|!	==:|!	==:|!	==:|!
*-	*-	*-	*-	*-	*-	*-	*-	*-	*-
!!!hum2abc: -s 0.7
!!!END: 2010/02/12/
!!!ENC: Craig Stuart Sapp
